pizza/images/instagram.svg

<svg width="16" height="16" viewBox="0 0 16 16" fill="none" xmlns="http://www.w3.org/2000/svg">
<path fill-rule="evenodd" clip-rule="evenodd" d="M7.94401 9.5348C8.82049 9.5348 9.53505 8.82152 9.53505 7.9444C9.53505 7.59816 9.42177 7.27848 9.23425 7.01736C8.94529 6.61672 8.47553 6.354 7.94497 6.354C7.41409 6.354 6.94465 6.6164 6.65505 7.01704C6.46689 7.27816 6.35457 7.59784 6.35425 7.94408C6.35329 8.8212 7.06721 9.5348 7.94401 9.5348Z" fill="#810000"/>
<path fill-rule="evenodd" clip-rule="evenodd" d="M11.417 5.99881V4.66569V4.46729L11.2176 4.46793L9.88513 4.47209L9.89025 6.00393L11.417 5.99881Z" fill="#810000"/>
<path fill-rule="evenodd" clip-rule="evenodd" d="M7.94432 0C3.56384 0 0 3.56384 0 7.94432C0 12.3245 3.56384 15.8886 7.94432 15.8886C12.3245 15.8886 15.8886 12.3245 15.8886 7.94432C15.8886 3.56384 12.3251 0 7.94432 0ZM12.4624 7.01728V10.7165C12.4624 11.68 11.679 12.463 10.7162 12.463H5.17248C4.20928 12.463 3.42624 11.68 3.42624 10.7165V7.01728V5.1728C3.42624 4.2096 4.20928 3.42656 5.17248 3.42656H10.7158C11.679 3.42656 12.4624 4.2096 12.4624 5.1728V7.01728Z" fill="#810000"/>
<path fill-rule="evenodd" clip-rule="evenodd" d="M10.4157 7.94437C10.4157 9.30661 9.30723 10.4157 7.94435 10.4157C6.58147 10.4157 5.47331 9.30661 5.47331 7.94437C5.47331 7.61669 5.53859 7.30341 5.65507 7.01733H4.30627V10.7165C4.30627 11.1946 4.69443 11.5818 5.17219 11.5818H10.7156C11.1927 11.5818 11.5815 11.1946 11.5815 10.7165V7.01733H10.232C10.3495 7.30341 10.4157 7.61669 10.4157 7.94437Z" fill="#810000"/>
</svg>

<svg width="16" height="16" fill="none" xmlns="http://www.w3.org/2000/svg"><path fill-rule="evenodd" clip-rule="evenodd" d="M7.944 9.535c.876 0 1.591-.713 1.591-1.59 0-.347-.113-.667-.3-.928a1.588 1.588 0 00-1.29-.663c-.53 0-1 .262-1.29.663a1.591 1.591 0 001.289 2.518zM11.417 5.999V4.467h-.2l-1.332.005.005 1.532 1.527-.005z" fill="#810000"/><path fill-rule="evenodd" clip-rule="evenodd" d="M7.944 0C3.564 0 0 3.564 0 7.944s3.564 7.945 7.944 7.945 7.945-3.564 7.945-7.945C15.889 3.564 12.325 0 7.944 0zm4.518 7.017v3.7c0 .963-.783 1.746-1.746 1.746H5.172a1.748 1.748 0 01-1.746-1.746V5.172c0-.963.783-1.746 1.746-1.746h5.544c.963 0 1.746.783 1.746 1.746v1.844z" fill="#810000"/><path fill-rule="evenodd" clip-rule="evenodd" d="M10.416 7.944a2.474 2.474 0 01-2.472 2.472 2.474 2.474 0 01-2.289-3.399H4.306v3.7c0 .478.388.865.866.865h5.544a.866.866 0 00.866-.866V7.018h-1.35c.118.286.184.6.184.927z" fill="#810000"/></svg>
